assets/img/html5.svg

<svg xmlns="http://www.w3.org/2000/svg" fill="none" stroke-width="1.5" color="#fff" viewBox="0 0 24 24"><path stroke="#fff" stroke-linecap="round" stroke-linejoin="round" d="m4 3 1.77778 17.0899L12 22l6.2222-1.9101L20 3H4Z"/><path stroke="#fff" stroke-linecap="round" stroke-linejoin="round" d="M17 7H7.5l.5 4.5h8l-.5 5.5-3.5 1-3.5-1-.25-2.5"/></svg>

<?xml version="1.0" encoding="UTF-8"?><svg width="24px" height="24px" stroke-width="1.5" viewBox="0 0 24 24" fill="none" xmlns="http://www.w3.org/2000/svg" color="#e4492e"><path d="M4 3L5.77778 20.0899L12 22L18.2222 20.0899L20 3H4Z" stroke="#e4492e" stroke-width="1.5" stroke-linecap="round" stroke-linejoin="round"></path><path d="M17 7H7.5L8 11.5H16L15.5 17L12 18L8.5 17L8.25 14.5" stroke="#e4492e" stroke-width="1.5" stroke-linecap="round" stroke-linejoin="round"></path></svg>
